X:1
T: If I Had Maggie in the Wood
N:
C:
S:
A:
O:
R:
M:4/4
K:G
I:speed 200
%W: A1
% voice 1 (1 lines, 37 notes)
K:G
M:4/4
L:1/16
D4 |G4 D4 G4 A4 |B4 e4 e4 f2 e2 |d4 B4 A4 G2 A2 |B4 A4 A4 B2 A2 |G4 D4 G4 A4 |B4 e4 e4 f2 e2 |d4 B4 A4 B2 A2 |G8 G4 D4 |
%W: A2
% voice 1 (1 lines, 36 notes)
G4 D4 G4 A4 |B4 e4 e4 f2 e2 |d4 B4 A4 G2 A2 |B4 A4 A4 B2 A2 |G4 D4 G4 A4 |B4 e4 e4 f2 e2 |d4 B4 A4 B2 A2 |G8 G4 d4 |
%W: B1
% voice 1 (1 lines, 35 notes)
g4 f4 e4 d4 |B4 e4 e4 f2 e2 |d4 B4 A4 G2 A2 |B4 A4 A6 d2 |g4 f4 e4 d4 |B4 e4 e4 f2 e2 |d4 B4 A4 B2 A2 |G8 G4 d4 |
%W: B2
% voice 1 (1 lines, 34 notes)
g4 f4 e4 d4 |B4 e4 e4 f2 e2 |d4 B4 A4 G2 A2 |B4 A4 A6 d2 |g4 f4 e4 d4 |B4 e4 e4 f2 e2 |d4 B4 A4 B2 A2 |G8 G4 ||
